public/images/broadcasters/rtve.svg

<svg clip-rule="evenodd" fill-rule="evenodd" stroke-linejoin="round" stroke-miterlimit="2" viewBox="0 0 484 250" xmlns="http://www.w3.org/2000/svg"><path d="m40.7 187.3c0 10.6-6.4 15.4-20.2 15.4-14.1 0-20.5-5.1-20.5-15.4v-126.3c0-11.3 5.4-16.1 17.6-16.1 11.3 0 15.1 2.5 17.6 12.2.6 1.9 1.6 2.9 2.5 2.9 1 0 1.6-.4 3.8-2.5 8-7.7 21.5-12.5 35.3-12.5 8.3 0 12.5 4.4 12.5 13.2 0 20.2-3.8 27.6-13.8 27.6-24.4 0-35.9 13.2-34.9 39.7v61.8zm63.8-171.2c0-10.9 6.5-16.1 20.3-16.1 14.2 0 20.5 5.2 20.5 16.1v23c0 4.8 1.6 6.4 6.4 6.4h10.9c10.9 0 16.1 6.1 16.1 19.2 0 12.8-5.2 19-16.1 19h-10.9c-4.4 0-6.4 1.9-6.4 6.4v48.1c0 21.8 7.1 32.4 21.5 32.4 3.5 0 7.1-.4 16.7-1.3 1-.4 1.9-.4 3.2-.4 7.1 0 10.2 3.5 10.2 11.9 0 15.7-13.8 24.4-38.2 24.4-35.9 0-54.2-23.4-54.2-69.3zm181.3 51.6c6.5-18.6 11.3-23 24.4-23 12.2 0 18.6 4.8 18.6 13.8 0 2.3-.4 3.2-1.6 7.1l-42.7 115.1c-6.5 17.6-11.5 22.1-24.4 22.1-12.8 0-18-4.4-24.4-22.1l-42.6-115.2c-1.3-3.2-1.6-4.8-1.6-7.1 0-9 6.5-13.8 18.6-13.8 13.2 0 17.6 4.4 24 23l21.5 61.9c1 2.5 2.3 3.8 4.4 3.8 1.9 0 3.5-1.3 4.2-3.8zm89.5 90.5c-3.8 0-5.4 1.6-5.4 4.8 0 31.8 20.9 51.4 55.2 51.4 12.2 0 20.5-1.9 35.6-8 5.2-1.9 7.3-2.5 9.6-2.5 5.4 0 9.4 4.8 9.4 12.2 0 19.2-26.3 34-61.2 34-57.1 0-89.2-36.6-89.2-101.7 0-64.5 30.8-103.3 81.7-103.3 43.6 0 72.9 32.8 72.9 81.5 0 24.4-6.4 31.8-27.8 31.8h-80.8zm64.1-32.4c3.8 0 5.2-1.6 5.2-5.8 0-29.5-12.8-45.5-35.9-45.5-22.8 0-38.2 19.2-38.2 46.8 0 2.9 1.9 4.4 5.2 4.4 0 .1 63.7.1 63.7.1z" fill="#fff" fill-rule="nonzero"/></svg>

<?xml version="1.0" encoding="UTF-8" standalone="no"?>
<!DOCTYPE svg PUBLIC "-//W3C//DTD SVG 1.1//EN" "http://www.w3.org/Graphics/SVG/1.1/DTD/svg11.dtd">
<svg width="100%" height="100%" viewBox="0 0 484 250" version="1.1" xmlns="http://www.w3.org/2000/svg" xmlns:xlink="http://www.w3.org/1999/xlink" xml:space="preserve" xmlns:serif="http://www.serif.com/" style="fill-rule:evenodd;clip-rule:evenodd;stroke-linejoin:round;stroke-miterlimit:2;">
    <path d="M40.7,187.3C40.7,197.9 34.3,202.7 20.5,202.7C6.4,202.7 0,197.6 0,187.3L0,61C0,49.7 5.4,44.9 17.6,44.9C28.9,44.9 32.7,47.4 35.2,57.1C35.8,59 36.8,60 37.7,60C38.7,60 39.3,59.6 41.5,57.5C49.5,49.8 63,45 76.8,45C85.1,45 89.3,49.4 89.3,58.2C89.3,78.4 85.5,85.8 75.5,85.8C51.1,85.8 39.6,99 40.6,125.5L40.6,187.3L40.7,187.3ZM104.5,16.1C104.5,5.2 111,0 124.8,0C139,0 145.3,5.2 145.3,16.1L145.3,39.1C145.3,43.9 146.9,45.5 151.7,45.5L162.6,45.5C173.5,45.5 178.7,51.6 178.7,64.7C178.7,77.5 173.5,83.7 162.6,83.7L151.7,83.7C147.3,83.7 145.3,85.6 145.3,90.1L145.3,138.2C145.3,160 152.4,170.6 166.8,170.6C170.3,170.6 173.9,170.2 183.5,169.3C184.5,168.9 185.4,168.9 186.7,168.9C193.8,168.9 196.9,172.4 196.9,180.8C196.9,196.5 183.1,205.2 158.7,205.2C122.8,205.2 104.5,181.8 104.5,135.9L104.5,16.1ZM285.8,67.7C292.3,49.1 297.1,44.7 310.2,44.7C322.4,44.7 328.8,49.5 328.8,58.5C328.8,60.8 328.4,61.7 327.2,65.6L284.5,180.7C278,198.3 273,202.8 260.1,202.8C247.3,202.8 242.1,198.4 235.7,180.7L193.1,65.5C191.8,62.3 191.5,60.7 191.5,58.4C191.5,49.4 198,44.6 210.1,44.6C223.3,44.6 227.7,49 234.1,67.6L255.6,129.5C256.6,132 257.9,133.3 260,133.3C261.9,133.3 263.5,132 264.2,129.5L285.8,67.7ZM375.3,158.2C371.5,158.2 369.9,159.8 369.9,163C369.9,194.8 390.8,214.4 425.1,214.4C437.3,214.4 445.6,212.5 460.7,206.4C465.9,204.5 468,203.9 470.3,203.9C475.7,203.9 479.7,208.7 479.7,216.1C479.7,235.3 453.4,250.1 418.5,250.1C361.4,250.1 329.3,213.5 329.3,148.4C329.3,83.9 360.1,45.1 411,45.1C454.6,45.1 483.9,77.9 483.9,126.6C483.9,151 477.5,158.4 456.1,158.4L375.3,158.4L375.3,158.2ZM439.4,125.8C443.2,125.8 444.6,124.2 444.6,120C444.6,90.5 431.8,74.5 408.7,74.5C385.9,74.5 370.5,93.7 370.5,121.3C370.5,124.2 372.4,125.7 375.7,125.7C375.7,125.8 439.4,125.8 439.4,125.8Z" style="fill:white;fill-rule:nonzero;"/>
</svg>
